X:1
T:Poor Old Horse.
F:/songs
B:Songs of the West by S. Baring-Gould.
S:Matthew Baker.
M:2/4
L:1/8
K:Bb
F|B c d c|B2 A G|F G F G| B3 d|
w:O once I lay in sta-ble, a hun-ter, well and warm, I
e d e c|d2 c A|B A B G|F2 z d|
w:had the best of shel-ter from cold and rain and harm; But
e e d c|(BG) F B|c d e c|d2 z c|
w:now in o-pen mea-*dow, a hedge I'm glad to find, To
d e f d|(cB) G F|G F G B|B2 ||
w:shield my sides from temp-*est, from driv-ing sleet and wind.
B G|F2 G A|(B4 |B3)||
w:Poor old horse, let him die!
